X:53
T:Toss the Feathers
R:reel
O:Ireland
M:C
L:1/8
K:D
"Em" EB  ~B2  dB  ~B2 | "Em" EB{c}BA   "D" FEFA | "Em" BE ~E2 "(G)" BA (3(Bcd) | "D" ~e2 fe  "(A)" dBAF :|
"Em" B2   ed  ~e2  de | "D"   fede    fe    e2  | "Em"      febe          febe | "D"   fede   fe    ~e2 | 
"Em" Be{f}ed  e2   de | "D"   fede    fa    ~a2 | "G" b2   bf      "D" ~a3   f | "A"   egfe   "G" dBAF  |]
